X:14
T:Girl I Left Behind Me, The
M:C|
G:Key: G
L:1/4
Z:abc-transcription Josh Larios <hades@elsewhere.org>, 2020.01.14
Z:abc-copyright This transcription is licensed under a Creative Commons Attribution-ShareAlike 4.0 International License.
K:G
[P:A]y0|: g/f/ | "G"edBG | "C"A/B/A/G/ ED | "G"GG G/A/B/c/ | "D"d2B g/f/ |
   "G"edBG | "C"A/B/A/G/ EG | "D"FAD E/F/ | "G"G2G :|
[P:B]y|: G/A/ | "G"Bdef |    g d B G     |     B d e f |  "D"g2f g/f/ | 
   "G"edBG | "C"A/B/A/G/ EG | "D"FAD E/F/ | "G"G2G :|

